svg/regular/bx-sidebar.svg

<svg xmlns="http://www.w3.org/2000/svg" width="24" height="24"><path d="M20 3H4c-1.103 0-2 .897-2 2v14c0 1.103.897 2 2 2h16c1.103 0 2-.897 2-2V5c0-1.103-.897-2-2-2zM4 19V7h6v12H4zm8 0V7h8V5l.002 14H12z"/><path d="M6 10h2v2H6zm0 4h2v2H6z"/></svg>

<svg xmlns="http://www.w3.org/2000/svg" width="24" height="24" viewBox="0 0 24 24"><path d="M20,3H4C2.897,3,2,3.897,2,5v14c0,1.103,0.897,2,2,2h6h2h8c1.103,0,2-0.897,2-2V5C22,3.897,21.103,3,20,3z M4,19V7h6v12H4z M12,19V7h8V5l0.002,14H12z"/><path d="M6 10H8V12H6zM6 14H8V16H6z"/></svg>
